**harm	**harte	**silbe	**silbe	**rhyme	**timestamp	**phrase	**leadinstrument	**kern
*M4/4	*M4/4	*	*	*	*	*	*	*
*	*	*	*	*	*	*	*	*
*	*	*	*	*	*	*	*	*
*B-:	*B-:	*	*	*	*	*	*	*B-:
*	*	*	*	*	*	*	*	*
*	*	*	*	*	*	*	*	*
1r;	N	.	.	.	0	.	r	1r;
=1	=1	=1	=1	=1	=1	=1	=1	=1
*>Letter>A	*>Letter>A	*>Letter>A	*>Letter>A	*>Letter>A	*>Letter>A	*>Letter>A	*>Letter>A	*>Letter>A
*>Label>Intro	*>Label>Intro	*>Label>Intro	*>Label>Intro	*>Label>Intro	*>Label>Intro	*>Label>Intro	*>Label>Intro	*>Label>Intro
4I	B-:maj	.	.	.	0.348	newline	r	1B- 1dd 1ff
4IVm7c	E-:7/5	.	.	.	0.962	.	r	4e- 4g 4B- 4dd
4I	B-:maj	.	.	.	1.575	.	r	4B- 4dd 4ff
4IVm7c	E-:7/5	.	.	.	2.188	.	r	4e- 4g 4B- 4dd
=2	=2	=2	=2	=2	=2	=2	=2	=2
4I	B-:maj	.	.	.	2.802	.	r	1B- 1dd 1ff
4IVm7c	E-:7/5	.	.	.	3.415	.	r	4e- 4g 4B- 4dd
4I	B-:maj	.	.	.	4.028	.	r	4B- 4dd 4ff
4IVm7c	E-:7/5	.	.	.	4.642	.	r	4e- 4g 4B- 4dd
=3	=3	=3	=3	=3	=3	=3	=3	=3
4I	B-:maj	.	.	.	5.255	.	r	1B- 1dd 1ff
4IVm7c	E-:7/5	.	.	.	5.868	.	r	4e- 4g 4B- 4dd
4I	B-:maj	.	.	.	6.481	.	r	4B- 4dd 4ff
4IVm7c	E-:7/5	.	.	.	7.095	.	r	4e- 4g 4B- 4dd
=4	=4	=4	=4	=4	=4	=4	=4	=4
*>Letter>B	*>Letter>B	*>Letter>B	*>Letter>B	*>Letter>B	*>Letter>B	*>Letter>B	*>Letter>B	*>Letter>B
*>Label>Verse	*>Label>Verse	*>Label>Verse	*>Label>Verse	*>Label>Verse	*>Label>Verse	*>Label>Verse	*>Label>Verse	*>Label>Verse
1I	B-:maj	All	.	.	7.708	newline	voice	1B- 1dd 1ff
.	.	the	.	.	.	.	.	.
.	.	_	.	.	.	.	.	.
.	.	wai	.	A	.	.	.	.
.	.	_	.	.	.	.	.	.
.	.	ters	.	.	.	.	.	.
.	.	in	.	.	.	.	.	.
.	.	your	.	.	.	.	.	.
=5	=5	=5	=5	=5	=5	=5	=5	=5
1II7	C:7	grand	.	.	10.124	.	voice	1C 1e 1g 1b-
.	.	ca	.	.	.	.	.	.
.	.	_	.	.	.	.	.	.
.	.	fe	.	A	.	.	.	.
.	.	_	.	.	.	.	.	.
.	.	.	.	.	.	.	.	.
.	.	.	.	.	.	.	.	.
=6	=6	=6	=6	=6	=6	=6	=6	=6
1V7	F:7	leave	.	.	12.54	.	voice	1F 1a 1cc 1ee-
.	.	their	.	.	.	.	.	.
.	.	_	.	.	.	.	.	.
.	.	ta	.	A	.	.	.	.
.	.	_	.	.	.	.	.	.
.	.	bles	.	.	.	.	.	.
.	.	when	.	.	.	.	.	.
.	.	you	.	.	.	.	.	.
=7	=7	=7	=7	=7	=7	=7	=7	=7
2I	B-:maj	blink	.	B	14.956	.	voice	2B- 2dd 2ff
.	.	.	.	.	.	.	.	.
.	.	.	.	.	.	.	.	.
.	.	oh	.	.	.	.	.	.
.	.	_	.	.	.	.	.	.
2IVc	E-:maj/5	_	.	.	16.163	.	voice	2e- 2g 2B-
.	.	_	.	.	.	.	.	.
.	.	_	.	.	.	.	.	.
.	.	_	.	.	.	.	.	.
.	.	_	.	.	.	.	.	.
=8	=8	=8	=8	=8	=8	=8	=8	=8
1I	B-:maj	ev-	.	.	17.371	newline	voice	1B- 1dd 1ff
.	.	-'ry	.	.	.	.	.	.
.	.	_	.	.	.	.	.	.
.	.	dog	.	.	.	.	.	.
.	.	.	.	.	.	.	.	.
.	.	must	.	.	.	.	.	.
.	.	have	.	.	.	.	.	.
.	.	his	.	.	.	.	.	.
=9	=9	=9	=9	=9	=9	=9	=9	=9
1II7	C:7	ev-	.	.	19.801	.	voice	1C 1e 1g 1b-
.	.	-'ry	.	.	.	.	.	.
.	.	_	.	.	.	.	.	.
.	.	day	.	A	.	.	.	.
.	.	_	.	.	.	.	.	.
.	.	.	.	.	.	.	.	.
.	.	.	.	.	.	.	.	.
=10	=10	=10	=10	=10	=10	=10	=10	=10
1V7	F:7	ev-	.	.	22.232	.	voice	1F 1a 1cc 1ee-
.	.	-'ry	.	.	.	.	.	.
.	.	_	.	.	.	.	.	.
.	.	drunk	.	.	.	.	.	.
.	.	.	.	.	.	.	.	.
.	.	must	.	.	.	.	.	.
.	.	have	.	.	.	.	.	.
.	.	his	.	.	.	.	.	.
=11	=11	=11	=11	=11	=11	=11	=11	=11
.	.	_	.	.	.	.	.	.
2I	B-:maj	drink	.	B	24.662	.	voice	2B- 2dd 2ff
.	.	.	.	.	.	.	.	.
.	.	.	.	.	.	.	.	.
.	.	Don't	.	.	.	.	.	.
.	.	_	.	.	.	.	.	.
.	.	wait	.	A	.	.	.	.
2III7c	D:7/5	_	.	.	25.877	.	voice	2d 2f# 2A 2cc
.	.	for	.	.	.	.	.	.
.	.	an	.	(C	.	.	.	.
=12	=12	=12	=12	=12	=12	=12	=12	=12
*>Letter>C	*>Letter>C	*>Letter>C	*>Letter>C	*>Letter>C	*>Letter>C	*>Letter>C	*>Letter>C	*>Letter>C
*>Label>Chorus	*>Label>Chorus	*>Label>Chorus	*>Label>Chorus	*>Label>Chorus	*>Label>Chorus	*>Label>Chorus	*>Label>Chorus	*>Label>Chorus
2vi	G:min	_	.	.	27.092	newline	voice	2G 2b- 2dd
.	.	swers	.	c)	.	.	.	.
.	.	.	.	.	.	.	.	.
.	.	just	.	.	.	.	.	.
.	.	_	.	.	.	.	.	.
.	.	take	.	A	.	.	.	.
2Im7c	B-:7/5	_	.	.	28.311	.	voice	2b- 2dd 2F 2aa
.	.	your	.	.	.	.	.	.
.	.	chan	.	(C	.	.	.	.
=13	=13	=13	=13	=13	=13	=13	=13	=13
2#ivo7	E:hdim7	_	.	.	29.53	.	voice	2E 2g 2b- 2dd
.	.	ces	.	c)	.	.	.	.
.	.	.	.	.	.	.	.	.
.	.	_	.	.	.	.	.	.
.	.	don't	.	.	.	.	.	.
.	.	ask	.	.	.	.	.	.
2V	F:sus4(b7)	_	.	.	30.75	.	voice	2F 2a 2cc
.	.	.	.	.	.	.	.	.
.	.	me	.	.	.	.	.	.
.	.	why	.	.	.	.	.	.
=14	=14	=14	=14	=14	=14	=14	=14	=14
4I	B-:maj	_	.	.	31.969	.	voice	4.B- 4.dd 4.ff
4IVm7c	E-:7/5	.	.	.	32.579	.	voice	8e- 8g 8B- 8dd
.	.	.	.	.	.	.	.	.
4I	B-:maj	.	.	.	33.188	.	voice	2B- 2dd 2ff
4IVm7c	E-:7/5	.	.	.	33.798	.	voice	4e- 4g 4B- 4dd
=15	=15	=15	=15	=15	=15	=15	=15	=15
4I	B-:maj	.	.	.	34.408	.	voice	1B- 1dd 1ff
4IVm7c	E-:7/5	.	.	.	35.017	.	voice	4e- 4g 4B- 4dd
4I	B-:maj	.	.	.	35.627	.	voice	4B- 4dd 4ff
4IVm7c	E-:7/5	.	.	.	36.237	.	voice	4e- 4g 4B- 4dd
=16	=16	=16	=16	=16	=16	=16	=16	=16
*>Letter>B	*>Letter>B	*>Letter>B	*>Letter>B	*>Letter>B	*>Letter>B	*>Letter>B	*>Letter>B	*>Letter>B
*>Label>Verse	*>Label>Verse	*>Label>Verse	*>Label>Verse	*>Label>Verse	*>Label>Verse	*>Label>Verse	*>Label>Verse	*>Label>Verse
1I	B-:maj	All	.	.	36.846	newline	voice	1B- 1dd 1ff
.	.	your	.	.	.	.	.	.
.	.	_	.	.	.	.	.	.
.	.	life	.	D	.	.	.	.
.	.	.	.	.	.	.	.	.
.	.	you	.	.	.	.	.	.
.	.	had	.	.	.	.	.	.
.	.	to	.	.	.	.	.	.
=17	=17	=17	=17	=17	=17	=17	=17	=17
1II7	C:7	stand	.	.	39.266	.	voice	1C 1e 1g 1b-
.	.	in	.	.	.	.	.	.
.	.	_	.	.	.	.	.	.
.	.	line	.	D	.	.	.	.
.	.	_	.	.	.	.	.	.
.	.	.	.	.	.	.	.	.
=18	=18	=18	=18	=18	=18	=18	=18	=18
1V7	F:7	still	.	.	41.686	.	voice	1F 1a 1cc 1ee-
.	.	you're	.	.	.	.	.	.
.	.	_	.	.	.	.	.	.
.	.	stan	.	.	.	.	.	.
.	.	_	.	.	.	.	.	.
.	.	ding	.	.	.	.	.	.
.	.	on	.	.	.	.	.	.
.	.	your	.	.	.	.	.	.
=19	=19	=19	=19	=19	=19	=19	=19	=19
2I	B-:maj	feet	.	E	44.106	.	voice	2B- 2dd 2ff
.	.	.	.	.	.	.	.	.
.	.	.	.	.	.	.	.	.
.	.	Oh	.	.	.	.	.	.
.	.	_	.	.	.	.	.	.
2IVc	E-:maj/5	_	.	.	45.316	.	voice	2e- 2g 2B-
.	.	_	.	.	.	.	.	.
.	.	_	.	.	.	.	.	.
.	.	_	.	.	.	.	.	.
.	.	_	.	.	.	.	.	.
=20	=20	=20	=20	=20	=20	=20	=20	=20
1I	B-:maj	all	.	.	46.526	newline	voice	1B- 1dd 1ff
.	.	the	.	.	.	.	.	.
.	.	_	.	.	.	.	.	.
.	.	choi	.	.	.	.	.	.
.	.	_	.	.	.	.	.	.
.	.	ces	.	.	.	.	.	.
.	.	.	.	.	.	.	.	.
.	.	made	.	.	.	.	.	.
.	.	you	.	.	.	.	.	.
=21	=21	=21	=21	=21	=21	=21	=21	=21
1II7	C:7	change	.	.	48.973	.	voice	1C 1e 1g 1b-
.	.	your	.	.	.	.	.	.
.	.	_	.	.	.	.	.	.
.	.	mind	.	D	.	.	.	.
.	.	_	.	.	.	.	.	.
.	.	.	.	.	.	.	.	.
=22	=22	=22	=22	=22	=22	=22	=22	=22
1V7	F:7	now	.	.	51.421	.	voice	1F 1a 1cc 1ee-
.	.	your	.	.	.	.	.	.
.	.	_	.	.	.	.	.	.
.	.	ca	.	.	.	.	.	.
.	.	_	.	.	.	.	.	.
.	.	len-	.	.	.	.	.	.
.	.	-dar's	.	.	.	.	.	.
.	.	com	.	.	.	.	.	.
=23	=23	=23	=23	=23	=23	=23	=23	=23
.	.	_	.	.	.	.	.	.
2I	B-:maj	plete	.	E	53.869	.	voice	2B- 2dd 2ff
.	.	.	.	.	.	.	.	.
.	.	.	.	.	.	.	.	.
.	.	don't	.	.	.	.	.	.
.	.	_	.	.	.	.	.	.
.	.	wait	.	A	.	.	.	.
2III7c	D:7/5	_	.	.	55.093	.	voice	2d 2f# 2A 2cc
.	.	for	.	.	.	.	.	.
.	.	an	.	(C	.	.	.	.
=24	=24	=24	=24	=24	=24	=24	=24	=24
*>Letter>C	*>Letter>C	*>Letter>C	*>Letter>C	*>Letter>C	*>Letter>C	*>Letter>C	*>Letter>C	*>Letter>C
*>Label>Chorus	*>Label>Chorus	*>Label>Chorus	*>Label>Chorus	*>Label>Chorus	*>Label>Chorus	*>Label>Chorus	*>Label>Chorus	*>Label>Chorus
2vi	G:min	_	.	.	56.316	newline	voice	2G 2b- 2dd
.	.	swers	.	c)	.	.	.	.
.	.	.	.	.	.	.	.	.
.	.	just	.	.	.	.	.	.
.	.	_	.	.	.	.	.	.
.	.	take	.	A	.	.	.	.
2Im7c	B-:7/5	_	.	.	57.526	.	voice	2b- 2dd 2F 2aa
.	.	your	.	.	.	.	.	.
.	.	chan	.	(C	.	.	.	.
=25	=25	=25	=25	=25	=25	=25	=25	=25
2#ivo7	E:hdim7	_	.	.	58.736	.	voice	2E 2g 2b- 2dd
.	.	ces	.	c)	.	.	.	.
.	.	.	.	.	.	.	.	.
.	.	_	.	.	.	.	.	.
.	.	don't	.	.	.	.	.	.
.	.	ask	.	.	.	.	.	.
2V	F:sus4(b7)	_	.	.	59.946	.	voice	2F 2a 2cc
.	.	_	.	.	.	.	.	.
.	.	me	.	.	.	.	.	.
.	.	why	.	.	.	.	.	.
=26	=26	=26	=26	=26	=26	=26	=26	=26
4I	B-:maj	_	.	.	61.155	.	voice	2B- 2dd 2ff
4IVm7c	E-:7/5	.	.	.	61.76	.	voice	4e- 4g 4B- 4dd
4I	B-:maj	.	.	.	62.365	.	voice	2B- 2dd 2ff
4IVm7c	E-:7/5	.	.	.	62.97	.	voice	4e- 4g 4B- 4dd
=27	=27	=27	=27	=27	=27	=27	=27	=27
4I	B-:maj	.	.	.	63.575	.	voice	2B- 2dd 2ff
4IVm7c	E-:7/5	.	.	.	64.18	.	voice	4e- 4g 4B- 4dd
4I	B-:maj	.	.	.	64.785	.	voice	4B- 4dd 4ff
.	.	Mmm,	.	.	.	.	.	.
4IVm7c	E-:7/5	_	.	.	65.39	.	voice	4e- 4g 4B- 4dd
.	.	_	.	.	.	.	.	.
=28	=28	=28	=28	=28	=28	=28	=28	=28
*>Letter>D	*>Letter>D	*>Letter>D	*>Letter>D	*>Letter>D	*>Letter>D	*>Letter>D	*>Letter>D	*>Letter>D
*>Label>Bridge	*>Label>Bridge	*>Label>Bridge	*>Label>Bridge	*>Label>Bridge	*>Label>Bridge	*>Label>Bridge	*>Label>Bridge	*>Label>Bridge
1V	F:maj	you	.	.	65.994	newline	voice	1F 1a 1cc
.	.	can	.	.	.	.	.	.
.	.	say	.	.	.	.	.	.
.	.	the	.	.	.	.	.	.
.	.	hu-	.	.	.	.	.	.
.	.	-man	.	.	.	.	.	.
.	.	_	.	.	.	.	.	.
.	.	heart	.	.	.	.	.	.
.	.	_	.	.	.	.	.	.
.	.	is	.	.	.	.	.	.
.	.	on	.	.	.	.	.	.
=29	=29	=29	=29	=29	=29	=29	=29	=29
1IV	E-:maj	_	.	.	68.422	.	voice	1E- 1g 1b-
.	.	ly	.	.	.	.	.	.
.	.	make	.	.	.	.	.	.
.	.	_	.	.	.	.	.	.
.	.	be-	.	.	.	.	.	.
.	.	-lieve	.	D	.	.	.	.
.	.	_	.	.	.	.	.	.
.	.	.	.	.	.	.	.	.
.	.	.	.	.	.	.	.	.
=30	=30	=30	=30	=30	=30	=30	=30	=30
1V	F:maj	I	.	.	70.849	.	voice	1F 1a 1cc
.	.	am	.	.	.	.	.	.
.	.	on	.	.	.	.	.	.
.	.	_	.	.	.	.	.	.
.	.	ly	.	.	.	.	.	.
.	.	figh-	.	.	.	.	.	.
.	.	-ting	.	.	.	.	.	.
.	.	fi-	.	(E	.	.	.	.
.	.	-re	.	e)	.	.	.	.
.	.	with	.	.	.	.	.	.
=31	=31	=31	=31	=31	=31	=31	=31	=31
1I	B-:maj	fi-	.	(E	73.276	.	voice	1B- 1dd 1ff
.	.	-re	.	e)	.	.	.	.
.	.	.	.	.	.	.	.	.
.	.	.	.	.	.	.	.	.
.	.	.	.	.	.	.	.	.
.	.	But	.	.	.	.	.	.
=32	=32	=32	=32	=32	=32	=32	=32	=32
1VI	G:maj	you	you	.	75.704	newline	voice	1G 1b 1dd
.	.	are	are	.	.	.	.	.
.	.	still	still	.	.	.	.	.
.	.	a	a	.	.	.	.	.
.	.	vic	vic	.	.	.	.	.
.	.	_	_	.	.	.	.	.
.	.	tim	tim	.	.	.	.	.
.	.	_	_	.	.	.	.	.
.	.	of	of	.	.	.	.	.
.	.	the	the	.	.	.	.	.
.	.	ac	ac	.	.	.	.	.
=33	=33	=33	=33	=33	=33	=33	=33	=33
1II	C:maj	_	_	.	78.144	.	voice	1C 1e 1g
.	.	ci-	ci-	.	.	.	.	.
.	.	-dents	-dents	.	.	.	.	.
.	.	_	_	.	.	.	.	.
.	.	you	you	.	.	.	.	.
.	.	leave	leave	D	.	.	.	.
.	.	_	_	.	.	.	.	.
.	.	.	.	.	.	.	.	.
.	.	.	.	.	.	.	.	.
=34	=34	=34	=34	=34	=34	=34	=34	=34
1VI	G:maj	sure	sure	.	80.584	.	voice	1G 1b 1dd
.	.	as	as	.	.	.	.	.
.	.	I'm	I'm	.	.	.	.	.
.	.	a	a	.	.	.	.	.
.	.	vic	vic	.	.	.	.	.
.	.	.	.	.	.	.	.	.
.	.	tim	tim	.	.	.	.	.
.	.	of	of	.	.	.	.	.
.	.	_	_	.	.	.	.	.
.	.	de-	de-	.	.	.	.	.
.	.	-sire,	-sire,	E	.	.	.	.
=35	=35	=35	=35	=35	=35	=35	=35	=35
2II7	C:7	_	_	.	83.025	.	voice	2C 2e 2g 2b-
2V7	F:7	yeah,	yeah,	.	84.245	.	voice	2F 2a 2cc 2ee-
.	.	yeah,	yeah,	.	.	.	.	.
.	.	_	_	.	.	.	.	.
.	.	yeah,	yeah,	.	.	.	.	.
=36	=36	=36	=36	=36	=36	=36	=36	=36
*>Letter>B	*>Letter>B	*>Letter>B	*>Letter>B	*>Letter>B	*>Letter>B	*>Letter>B	*>Letter>B	*>Letter>B
*>Label>Verse	*>Label>Verse	*>Label>Verse	*>Label>Verse	*>Label>Verse	*>Label>Verse	*>Label>Verse	*>Label>Verse	*>Label>Verse
1I	B-:maj	all	all	.	85.465	newline	voice	1B- 1dd 1ff
.	.	the	the	.	.	.	.	.
.	.	_	_	.	.	.	.	.
.	.	ser	ser	.	.	.	.	.
.	.	_	_	.	.	.	.	.
.	.	vants	vants	.	.	.	.	.
.	.	.	.	.	.	.	.	.
.	.	in	in	.	.	.	.	.
.	.	your	your	.	.	.	.	.
=37	=37	=37	=37	=37	=37	=37	=37	=37
1II7	C:7	new	new	.	87.909	.	voice	1C 1e 1g 1b-
.	.	ho	ho	.	.	.	.	.
.	.	_	_	.	.	.	.	.
.	.	tel	tel	.	.	.	.	.
.	.	_	_	.	.	.	.	.
.	.	.	.	.	.	.	.	.
.	.	.	.	.	.	.	.	.
=38	=38	=38	=38	=38	=38	=38	=38	=38
1V7	F:7	throw	.	.	90.354	.	voice	1F 1a 1cc 1ee-
.	.	their	.	.	.	.	.	.
.	.	_	.	.	.	.	.	.
.	.	ro	.	.	.	.	.	.
.	.	_	.	.	.	.	.	.
.	.	ses	.	.	.	.	.	.
.	.	at	.	.	.	.	.	.
.	.	your	.	.	.	.	.	.
=39	=39	=39	=39	=39	=39	=39	=39	=39
2I	B-:maj	feet	.	F	92.799	.	voice	2B- 2dd 2ff
.	.	.	.	.	.	.	.	.
.	.	.	.	.	.	.	.	.
.	.	Oh	.	.	.	.	.	.
.	.	_	.	.	.	.	.	.
2IVc	E-:maj/5	_	.	.	94.021	.	voice	2e- 2g 2B-
.	.	_	.	.	.	.	.	.
.	.	_	.	.	.	.	.	.
.	.	_	.	.	.	.	.	.
.	.	_	.	.	.	.	.	.
=40	=40	=40	=40	=40	=40	=40	=40	=40
1I	B-:maj	fool	fool	.	95.243	newline	voice	1B- 1dd 1ff
.	.	them	them	.	.	.	.	.
.	.	_	_	.	.	.	.	.
.	.	all,	all,	.	.	.	.	.
.	.	_	_	.	.	.	.	.
.	.	but	but	.	.	.	.	.
.	.	.	.	.	.	.	.	.
.	.	ba-	ba-	A	.	.	.	.
.	.	-by	-by	.	.	.	.	.
=41	=41	=41	=41	=41	=41	=41	=41	=41
1II7	C:7	I	I	.	97.685	.	voice	1C 1e 1g 1b-
.	.	can	can	.	.	.	.	.
.	.	_	_	.	.	.	.	.
.	.	tell	tell	.	.	.	.	.
.	.	_	_	.	.	.	.	.
.	.	.	.	.	.	.	.	.
.	.	.	.	.	.	.	.	.
=42	=42	=42	=42	=42	=42	=42	=42	=42
1V7	F:7	you're	.	.	100.127	.	voice	1F 1a 1cc 1ee-
.	.	no	.	.	.	.	.	.
.	.	_	.	.	.	.	.	.
.	.	stran	.	A	.	.	.	.
.	.	_	.	.	.	.	.	.
.	.	ger	.	.	.	.	.	.
.	.	to	.	.	.	.	.	.
.	.	the	.	.	.	.	.	.
=43	=43	=43	=43	=43	=43	=43	=43	=43
2I	B-:maj	street	Ooh!	F	102.568	.	voice	2B- 2dd 2ff
.	.	.	.	.	.	.	.	.
.	.	.	.	.	.	.	.	.
.	.	Don't	.	.	.	.	.	.
.	.	_	.	.	.	.	.	.
.	.	ask	.	.	.	.	.	.
2III7c	D:7/5	_	_	.	103.789	.	voice	2d 2f# 2A 2cc
.	.	for	.	.	.	.	.	.
.	.	_	.	.	.	.	.	.
.	.	fa	.	A	.	.	.	.
=44	=44	=44	=44	=44	=44	=44	=44	=44
*>Letter>C	*>Letter>C	*>Letter>C	*>Letter>C	*>Letter>C	*>Letter>C	*>Letter>C	*>Letter>C	*>Letter>C
*>Label>Chorus	*>Label>Chorus	*>Label>Chorus	*>Label>Chorus	*>Label>Chorus	*>Label>Chorus	*>Label>Chorus	*>Label>Chorus	*>Label>Chorus
2vi	G:min	_	_	.	105.01	newline	voice	2G 2b- 2dd
.	.	vors	.	.	.	.	.	.
.	.	.	.	.	.	.	.	.
.	.	don't	.	.	.	.	.	.
.	.	_	.	.	.	.	.	.
2Im7c	B-:7/5	talk	_	.	106.235	.	voice	2b- 2dd 2F 2aa
.	.	to	.	.	.	.	.	.
.	.	stran	.	A	.	.	.	.
=45	=45	=45	=45	=45	=45	=45	=45	=45
2#ivo7	E:hdim7	_	_	.	107.46	.	voice	2E 2g 2b- 2dd
.	.	gers	.	.	.	.	.	.
.	.	.	.	.	.	.	.	.
.	.	_	.	.	.	.	.	.
.	.	don't	.	.	.	.	.	.
.	.	ask	.	.	.	.	.	.
2V	F:sus4(b7)	_	_	.	108.685	.	voice	2F 2a 2cc
.	.	me	.	.	.	.	.	.
.	.	why	.	.	.	.	.	.
=46	=46	=46	=46	=46	=46	=46	=46	=46
4I	B-:maj	_	_	.	109.909	.	voice	4.B- 4.dd 4.ff
4IVm7c	E-:7/5	.	.	.	110.522	.	voice	8e- 8g 8B- 8dd
.	.	.	.	.	.	.	.	.
4I	B-:maj	.	.	.	111.134	.	voice	2B- 2dd 2ff
4IVm7c	E-:7/5	.	.	.	111.747	.	voice	4e- 4g 4B- 4dd
=47	=47	=47	=47	=47	=47	=47	=47	=47
4I	B-:maj	.	.	.	112.359	.	voice	1B- 1dd 1ff
4IVm7c	E-:7/5	.	.	.	112.971	.	voice	4e- 4g 4B- 4dd
4I	B-:maj	.	.	.	113.584	.	voice	4B- 4dd 4ff
4IVm7c	E-:7/5	.	.	.	114.196	.	voice	4e- 4g 4B- 4dd
=48	=48	=48	=48	=48	=48	=48	=48	=48
*>Letter>D	*>Letter>D	*>Letter>D	*>Letter>D	*>Letter>D	*>Letter>D	*>Letter>D	*>Letter>D	*>Letter>D
*>Label>Solo	*>Label>Solo	*>Label>Solo	*>Label>Solo	*>Label>Solo	*>Label>Solo	*>Label>Solo	*>Label>Solo	*>Label>Solo
1V	F:maj	.	.	.	114.809	newline	piano	1F 1a 1cc
=49	=49	=49	=49	=49	=49	=49	=49	=49
1IV	E-:maj	.	.	.	117.275	.	piano	1E- 1g 1b-
=50	=50	=50	=50	=50	=50	=50	=50	=50
1V	F:maj	.	.	.	119.742	.	piano	1F 1a 1cc
=51	=51	=51	=51	=51	=51	=51	=51	=51
1I	B-:maj	.	.	.	122.209	.	piano	1B- 1dd 1ff
=52	=52	=52	=52	=52	=52	=52	=52	=52
1VI	G:maj	.	.	.	124.676	newline	piano	1G 1b 1dd
=53	=53	=53	=53	=53	=53	=53	=53	=53
1II	C:maj	.	.	.	127.111	.	piano	1C 1e 1g
=54	=54	=54	=54	=54	=54	=54	=54	=54
1VI	G:maj	.	.	.	129.545	.	piano	1G 1b 1dd
=55	=55	=55	=55	=55	=55	=55	=55	=55
2II7	C:7	.	.	.	131.98	.	piano	1C 1e 1g 1b-
2V7	F:7	.	.	.	133.197	.	piano	2F 2a 2cc 2ee-
=56	=56	=56	=56	=56	=56	=56	=56	=56
*>Letter>B	*>Letter>B	*>Letter>B	*>Letter>B	*>Letter>B	*>Letter>B	*>Letter>B	*>Letter>B	*>Letter>B
*>Label>Verse	*>Label>Verse	*>Label>Verse	*>Label>Verse	*>Label>Verse	*>Label>Verse	*>Label>Verse	*>Label>Verse	*>Label>Verse
1I	B-:maj	Yes	.	.	134.414	newline	voice	1B- 1dd 1ff
.	.	ter	.	.	.	.	.	.
.	.	_	.	.	.	.	.	.
.	.	day	.	A	.	.	.	.
.	.	_	.	.	.	.	.	.
.	.	you	.	.	.	.	.	.
.	.	were	.	.	.	.	.	.
.	.	an	.	.	.	.	.	.
=57	=57	=57	=57	=57	=57	=57	=57	=57
1II7	C:7	on-	.	.	136.878	.	voice	1C 1e 1g 1b-
.	.	-ly	.	.	.	.	.	.
.	.	_	.	.	.	.	.	.
.	.	child	.	G	.	.	.	.
.	.	_	.	.	.	.	.	.
.	.	.	.	.	.	.	.	.
.	.	.	.	.	.	.	.	.
=58	=58	=58	=58	=58	=58	=58	=58	=58
1V7	F:7	now	.	.	139.341	.	voice	1F 1a 1cc 1ee-
.	.	your	.	.	.	.	.	.
.	.	_	.	.	.	.	.	.
.	.	ghosts	.	.	.	.	.	.
.	.	.	.	.	.	.	.	.
.	.	have	.	.	.	.	.	.
.	.	gone	.	.	.	.	.	.
.	.	a	.	.	.	.	.	.
=59	=59	=59	=59	=59	=59	=59	=59	=59
.	.	_	.	.	.	.	.	.
2I	B-:maj	way	.	A	141.804	.	voice	2B- 2dd 2ff
.	.	.	.	.	.	.	.	.
.	.	.	.	.	.	.	.	.
.	.	oh	.	.	.	.	.	.
.	.	_	.	.	.	.	.	.
2IVc	E-:maj/5	_	.	.	143.036	.	voice	2e- 2g 2B-
.	.	_	.	.	.	.	.	.
.	.	_	.	.	.	.	.	.
.	.	_	.	.	.	.	.	.
.	.	_	.	.	.	.	.	.
=60	=60	=60	=60	=60	=60	=60	=60	=60
1I	B-:maj	you	.	.	144.268	newline	voice	1B- 1dd 1ff
.	.	can	.	.	.	.	.	.
.	.	_	.	.	.	.	.	.
.	.	kill	.	.	.	.	.	.
.	.	.	.	.	.	.	.	.
.	.	them	.	.	.	.	.	.
.	.	in	.	.	.	.	.	.
.	.	the	.	.	.	.	.	.
=61	=61	=61	=61	=61	=61	=61	=61	=61
1II7	C:7	clas-	.	.	146.706	.	voice	1C 1e 1g 1b-
.	.	-sic	.	.	.	.	.	.
.	.	_	.	.	.	.	.	.
.	.	style	.	G	.	.	.	.
.	.	_	.	.	.	.	.	.
.	.	.	.	.	.	.	.	.
.	.	.	.	.	.	.	.	.
=62	=62	=62	=62	=62	=62	=62	=62	=62
1V7	F:7	now	.	.	149.144	.	voice	1F 1a 1cc 1ee-
.	.	you	.	.	.	.	.	.
.	.	_	.	.	.	.	.	.
.	.	par-	.	.	.	.	.	.
.	.	_	.	.	.	.	.	.
.	.	-lez	.	A	.	.	.	.
.	.	vous	.	.	.	.	.	.
.	.	fran-	.	.	.	.	.	.
=63	=63	=63	=63	=63	=63	=63	=63	=63
.	.	_	.	.	.	.	.	.
2I	B-:maj	-cais	Ooh	A	151.582	.	voice	2B- 2dd 2ff
.	.	.	.	.	.	.	.	.
.	.	don't	.	.	.	.	.	.
.	.	_	.	.	.	.	.	.
2III7c	D:7/5	look	_	.	152.801	.	voice	2d 2f# 2A 2cc
.	.	_	.	.	.	.	.	.
.	.	for	.	.	.	.	.	.
.	.	an	.	(E	.	.	.	.
=64	=64	=64	=64	=64	=64	=64	=64	=64
*>Letter>C	*>Letter>C	*>Letter>C	*>Letter>C	*>Letter>C	*>Letter>C	*>Letter>C	*>Letter>C	*>Letter>C
*>Label>Chorus	*>Label>Chorus	*>Label>Chorus	*>Label>Chorus	*>Label>Chorus	*>Label>Chorus	*>Label>Chorus	*>Label>Chorus	*>Label>Chorus
2vi	G:min	_	_	.	154.02	newline	voice	2G 2b- 2dd
.	.	swers	.	e)	.	.	.	.
.	.	.	.	.	.	.	.	.
.	.	.	.	.	.	.	.	.
.	.	you	.	.	.	.	.	.
.	.	_	.	.	.	.	.	.
.	.	took	.	.	.	.	.	.
2Im7c	B-:7/5	_	_	.	155.242	.	voice	2b- 2dd 2F 2aa
.	.	_	.	.	.	.	.	.
.	.	your	.	.	.	.	.	.
.	.	chan	.	(E	.	.	.	.
=65	=65	=65	=65	=65	=65	=65	=65	=65
2#ivo7	E:hdim7	_	_	.	156.464	.	voice	2E 2g 2b- 2dd
.	.	ces	.	e)	.	.	.	.
.	.	.	.	.	.	.	.	.
.	.	don't	.	.	.	.	.	.
.	.	ask	.	.	.	.	.	.
2V	F:sus4(b7)	_	_	.	157.686	.	voice	2F 2a 2cc
.	.	_	.	.	.	.	.	.
.	.	_	.	.	.	.	.	.
.	.	_	.	.	.	.	.	.
.	.	_	.	.	.	.	.	.
.	.	me	.	.	.	.	.	.
.	.	why!	.	.	.	.	.	.
=66	=66	=66	=66	=66	=66	=66	=66	=66
4I	B-:maj	_	_	.	158.908	.	voice	1B- 1dd 1ff
4IVm7c	E-:7/5	.	.	.	159.519	.	voice	4e- 4g 4B- 4dd
4I	B-:maj	.	.	.	160.13	.	voice	4B- 4dd 4ff
4IVm7c	E-:7/5	.	.	.	160.741	.	voice	4e- 4g 4B- 4dd
=67	=67	=67	=67	=67	=67	=67	=67	=67
4I	B-:maj	.	.	.	161.352	.	voice	2B- 2dd 2ff
4IVm7c	E-:7/5	.	.	.	161.964	.	voice	4e- 4g 4B- 4dd
4I	B-:maj	.	.	.	162.575	.	voice	4B- 4dd 4ff
.	.	Don't	Don't	.	.	.	.	.
.	.	ask	ask	.	.	.	.	.
4IVm7c	E-:7/5	_	_	.	163.186	.	voice	4e- 4g 4B- 4dd
.	.	me	me	.	.	.	.	.
.	.	why	why	.	.	.	.	.
=68	=68	=68	=68	=68	=68	=68	=68	=68
*>Letter>A2	*>Letter>A2	*>Letter>A2	*>Letter>A2	*>Letter>A2	*>Letter>A2	*>Letter>A2	*>Letter>A2	*>Letter>A2
*>Label>Outro	*>Label>Outro	*>Label>Outro	*>Label>Outro	*>Label>Outro	*>Label>Outro	*>Label>Outro	*>Label>Outro	*>Label>Outro
4I	B-:maj	_	_	.	163.797	newline	voice	1B- 1dd 1ff
4IVm7c	E-:7/5	.	.	.	164.403	.	voice	4e- 4g 4B- 4dd
4I	B-:maj	.	.	.	165.01	.	voice	4B- 4dd 4ff
4IVm7c	E-:7/5	.	.	.	165.617	.	voice	4e- 4g 4B- 4dd
=69	=69	=69	=69	=69	=69	=69	=69	=69
4I	B-:maj	.	.	.	166.224	.	voice	1B- 1dd 1ff
4IVm7c	E-:7/5	.	.	.	166.83	.	voice	4e- 4g 4B- 4dd
2I	B-:maj	.	.	.	167.437	.	voice	2B- 2dd 2ff
1r;	N	.	.	.	179.086	.	r	1r;
*-	*-	*-	*-	*-	*-	*-	*-	*-
!!!BillboardChartDate: 1980/10/18
!!!BillboardPeak: 19
!!!BillboardWeeksOnChart: 15
!!!COC: Billy Joel
!!!ENC: Nathaniel Condit-Schultz
!!!EST: Awating manual error checking and editing.
!!!OTL: Don't Ask Me Why
!!!RDF**harte: Chris Harte's syntax, used by MIREX
!!!RDF**harmony: **recip + pitch class of root + harmonic quality
!!!RDF**leadinstrument: original McGill primary instrumentation annotation
!!!RDF**phrase: newline = linebreak in original McGill transcription
!!!RDF**timestamp: McGill audio timestamp in seconds
!!!RDT: 2017/01/12/
!!!SampleActualRank: 57
!!!SampleID#: 0969
!!!SampleTargetRank: 58
!!!MBID: af7ca798-221f-4f62-ac89-a1d7ef8da665
